X:1
T:Title
%%score { ( 1 3 ) | ( 2 4 ) }
L:1/8
M:4/4
K:Bb
V:1 treble nm="Grand Piano"
V:3 treble 
V:2 bass 
V:4 bass 
V:1
 z4 z[Q:1/4=100] [DF] [EG]>[DF] | [DB]2 [DA]2 [DG]2 [B,D]2 | [DF]2 [DF]2- [DF][DF] [EG]>[DF] | %3
 [DB]2 [DB]2 [DA]2 [DG]2 | [EA]4- [EA]F A>B | c2 F2 G2 F2 | [DF]2 [Fd]2- [Fd][Fd] [Fd]>[Fd] | %7
 [=Ec]2 [EG]2 [EA]2 [EB]2 | c4- cF G>F | [DB]2 [DA]2 [DG]2 [B,D]2 | %10
 [DF]2 [DF]2- [DF][DF] [_D=E]>[=DF] | G2 A2 B2 [Gc]2 | [^Fd]4- [Fd][Fd] [Fd]>[Fd] | %13
 [Gc]2 [GB]2 [GB]2 [EG]2 | [DF]2 [DB]2- [DB][DB] [DB]>[DB] | [DB]2 [=EG]2 [EB]2 c2 |[M:3/4] [DB]6 | %17
[M:1/4] [DF]2 |[M:4/4] [Fd]6 z2[K:bass] | [DF]6[K:treble] z2 | [B,DF]2 [A,CE]4 [A,EG]2 | %21
[M:5/8] [EG]2 [DF]3 |[M:3/8] [DF][DF]>[DF] |[M:4/4] [DB]2 c2 d2 [_Af]2 |[M:5/4] [_Af]2 e6 G2 | %25
[M:4/4] F F3 G2 A2 |[M:5/8] B2- [EB-]2 [DB] |] %27
V:2
 z4 z [B,,B,] [B,,B,]>[B,,B,] | [B,,B,]2 [B,,B,]2 [B,,B,]2 [B,,F,]2 | %2
 [B,,B,]2 [B,,B,]2- [B,,B,][B,,B,] [B,,B,]>[B,,B,] | [B,,F,]2 [B,,F,]2 [B,,F,]2 [B,,F,]2 | %4
 [C,F,]4- [C,F,][F,A,E] [F,CE]>[F,G,E] | [F,A,E]2 [F,A,E]2 [F,A,E]2 [F,A,E]2 | %6
 [B,,B,]2 [B,,B,]2- [B,,B,][B,,B,] [B,,B,]>[B,,B,] | [C,G,]2 [C,C]2 [C,C]2 [C,B,]2 | %8
 [F,A,E]4- [F,A,E][F,A,E] [F,A,E]>[F,A,E] | [B,,B,]2 [B,,B,]2 [B,,B,]2 [B,,F,]2 | %10
 [B,,B,]2 [B,,B,]2- [B,,B,][B,,B,] [B,,B,]>[B,,B,] | [B,E]2 [A,D^F]2 [G,DG]2[K:bass] [E,G,]2 | %12
 [D,A,]4- [D,A,][D,A,] [D,A,]>[D,A,] | [E,G,]2 [E,E]2 [E,E]2 [E,B,]2 | %14
 [B,,B,]2 [B,,F,]2- [B,,F,][B,,F,] [B,,F,]>[B,,F,] | [G,B,]2 [C,C]2 [C,G,]2 [F,E]2 | %16
[M:3/4] [B,,F,]6 |[M:1/4] [B,,B,]2 |[M:4/4] [B,,B,]2 B,,2 B,,>B,, B,,>B,, | %19
 B,,>B,, B,,>B,, B,,2 B,,2 | F,2 F,4 F,2 |[M:5/8] [B,,B,]2 [B,,B,]3 | %22
[M:3/8] [B,,B,][B,,B,]>[B,,B,] |[M:4/4] [B,,B,]2[K:treble] [F,A,F]2 [B,F]2[K:bass] [D,B,]2 | %24
[M:5/4] z2 G6 [E,B,E]2 |[M:4/4] [F,B,D] [F,B,D]3 [F,A,E]2 [F,CE]2 |[M:5/8] z2 G,2 F, |] %27
V:3
 x8 | x8 | x8 | x8 | x8 | x8 | x8 | x8 | x8 | x8 | x8 | x8 | x8 | x8 | x8 | x8 |[M:3/4] x6 | %17
[M:1/4] x2 |[M:4/4] z2 B,2 B,>[B,DF] [B,EG]>[K:bass][F,B,D] | B,>B, B,>B, B,2[K:treble] [B,DG]2 | %20
 x8 |[M:5/8] x5 |[M:3/8] x3 |[M:4/4] x8 |[M:5/4] x10 |[M:4/4] x8 |[M:5/8] [B,D]2 z z2 |] %27
V:4
 x8 | x8 | x8 | x8 | x8 | x8 | x8 | x8 | x8 | x8 | x8 | x6[K:bass] x2 | x8 | x8 | x8 | x8 | %16
[M:3/4] x6 |[M:1/4] x2 |[M:4/4] x8 | x8 | x8 |[M:5/8] x5 |[M:3/8] x3 | %23
[M:4/4] x2[K:treble] x4[K:bass] x2 |[M:5/4] [E,B,]2- [E,B,]6 z2 |[M:4/4] x8 | %26
[M:5/8] B,,-B,,- B,,3 |] %27

